X:945
T:Up Downey
R:reel
C:Tola Custy
D:Christy O'Leary & Bert Deivert: Song's Sweet Caress
Z:id:hn-reel-945
M:C|
L:1/8
K:Edor
EFGA B2eB | B2GB AGFG | EFGA B2ef | gfeg f2~a2 |
EFGA Bded | B2GB AGFG | EFGA B2ed | BAGF E4 :|
|: g2eg fegf | egfe a3f | g2eg fegf | egfe B3f |
g2eg fegf | egfe a4 | b2gb agfg |1 deed e3f :|2 deed eBGF ||
P:variations
|: EFGA Bded | ABGB AGFG | EFGA Bdef | gfeg f2~a2 |
EFGA Bded | ABGB AGFG | EFGA Bded | BAGF E4 :|
|: gfeg fegf | egfe a3f | gfeg fegf | egfe B3f |
gfeg fegf | egfe a4 | abgb agfg |1 deed e3f :|2 deed eBGF ||

